X: 239
T: The Fitzwilliam
%R: march, reel
Z: 2014 John Chambers <jc:trillian.mit.edu>
B: Preston "Twenty four Country Dances for the Year 1794" p.100 #1
F: http://www.vwml.org/browse/browse-collections-dance-tune-books/browse-prestons1794# 2014-8-10
N: The rhythms at strain boundaries aren't quite right, due to the initial E pickup note.
M: 2/4
L: 1/8
K: A
E |\
AAAB | c>dcA | B>cBG | A/G/A/B/ AE |\
AAAB | c>dcA | dB AG | A2 A2 :|
|:\
e2 (e/f/e/d/) | cccd | eaed | c>de2 |\
e2 (e/f/e/d/) | cccd | eaed | c>d e2 :|
|:\
dddB | cccA | dddB | e>f e2 |\
d>edB | c>dcA | dB AG | A2 A2 :|
% - - - - - - - - - - - - - - - - - - - - - - - - -
%%begintext align
%%      Foot it & right hands across .|
%%    Foot it & left hands back again :|
%%       Lead down 2 Cu: up again :|.
%%              Allemande :|:
%% Lead thro' the bottom come up 1 Cu: .||
%%         Right & left at top :||
%%endtext
% - - - - - - - - - - - - - - - - - - - - - - - - -

%%sep 1 1 500
%%sep 1 1 500
